X: 20
T:Jenny Nettles. JB.20
M:4/4
L:1/8
Q:160
S:James Biggins MS, Leeds,1779.
R:Scots Measure
O:England
A:Yorkshire
W:Nick Barber & Chris Partingto
K:G
c2B2A2a2|e=fge d/c/B/A/ GB|c2B2A2a2|ge=fde2A2:|!
|:c>dec c>dec|BGdB B>cdB|c>deA cdea|ge=fde2A2:|]
